static/fa/svgs/solid/place-of-worship.svg

<svg xmlns="http://www.w3.org/2000/svg" viewBox="0 0 640 512"><!--! Font Awesome Free 6.1.1 by @fontawesome - https://fontawesome.com License - https://fontawesome.com/license/free (Icons: CC BY 4.0, Fonts: SIL OFL 1.1, Code: MIT License) Copyright 2022 Fonticons, Inc.--><path d="m233.4 86.63 75.3-75.31c6.2-6.253 16.4-6.253 22.6 0l75.3 75.31c6 6 9.4 14.17 9.4 22.67v108.3l40.7 24.4c14.5 8.7 23.3 24.3 23.3 41.2V512h-96v-96c0-35.3-28.7-64-64.9-64-34.4 0-64 28.7-64 64v96h-96V283.2c0-16.9 9.7-32.5 24.2-41.2l39.8-24.4V109.3c0-8.5 4.3-16.67 10.3-22.67zM24.87 330.3 128 273.6V512H48c-26.51 0-48-21.5-48-48v-91.6c0-17.5 9.53-33.6 24.87-42.1zM592 512h-80V273.6l103.1 56.7c15.4 8.5 24.9 24.6 24.9 42.1V464c0 26.5-21.5 48-48 48z"/></svg>

<svg xmlns="http://www.w3.org/2000/svg" viewBox="0 0 640 512"><!--! Font Awesome Free 6.1.1 by @fontawesome - https://fontawesome.com License - https://fontawesome.com/license/free (Icons: CC BY 4.0, Fonts: SIL OFL 1.1, Code: MIT License) Copyright 2022 Fonticons, Inc. --><path d="M233.4 86.63L308.7 11.32C314.9 5.067 325.1 5.067 331.3 11.32L406.6 86.63C412.6 92.63 416 100.8 416 109.3V217.6L456.7 242C471.2 250.7 480 266.3 480 283.2V512H384V416C384 380.7 355.3 352 319.1 352C284.7 352 255.1 380.7 255.1 416V512H159.1V283.2C159.1 266.3 168.8 250.7 183.3 242L223.1 217.6V109.3C223.1 100.8 227.4 92.63 233.4 86.63H233.4zM24.87 330.3L128 273.6V512H48C21.49 512 0 490.5 0 464V372.4C0 354.9 9.53 338.8 24.87 330.3V330.3zM592 512H512V273.6L615.1 330.3C630.5 338.8 640 354.9 640 372.4V464C640 490.5 618.5 512 592 512V512z"/></svg>
